images/webclip.svg

<svg width="256" height="256" viewBox="0 0 256 256" fill="none" xmlns="http://www.w3.org/2000/svg">
<rect width="256" height="256" rx="12" fill="#2C3437"/>
<path d="M122.278 90.6539C121.444 90.6538 120.643 90.3223 120.053 89.7323C119.463 89.1423 119.132 88.3421 119.131 87.5077C119.127 83.7389 117.628 80.1258 114.963 77.4608C112.298 74.7958 108.684 73.2966 104.915 73.2922C104.081 73.2922 103.281 72.9607 102.69 72.3706C102.1 71.7807 101.769 70.9804 101.769 70.146C101.769 69.3116 102.1 68.5114 102.69 67.9214C103.281 67.3314 104.081 67 104.915 67C110.352 67.0066 115.564 69.1692 119.409 73.0133C123.253 76.8575 125.416 82.0693 125.423 87.5057C125.423 88.3401 125.093 89.1405 124.503 89.7309C123.913 90.3213 123.113 90.6533 122.278 90.6539Z" fill="white"/>
<path d="M133.301 90.6539C132.466 90.6538 131.666 90.3223 131.076 89.7322C130.486 89.1422 130.155 88.3419 130.154 87.5074C130.161 82.0701 132.324 76.8576 136.169 73.013C140.013 69.1686 145.225 67.0061 150.662 67C151.497 67 152.297 67.3316 152.887 67.9217C153.477 68.5117 153.808 69.312 153.808 70.1465C153.808 70.981 153.477 71.7812 152.887 72.3713C152.297 72.9614 151.497 73.2928 150.662 73.2928C146.893 73.297 143.28 74.7962 140.615 77.4615C137.95 80.1267 136.452 83.7404 136.447 87.5096C136.447 88.3438 136.115 89.1434 135.525 89.733C134.935 90.3226 134.135 90.6539 133.301 90.6539Z" fill="white"/>
<path d="M91.7242 166.896C80.707 170.719 71.4611 170.331 65.3342 169.183C56.895 167.604 51.9782 164.13 51.2219 162.622C50.8215 161.822 51.1475 161.593 51.4582 161.404L89.669 139.978V133.232L48.4002 156.373L48.3302 156.412C45.1411 158.313 44.1238 161.831 45.7963 165.167C47.8829 169.326 55.2733 173.241 64.1877 174.91C67.4337 175.512 70.7317 175.813 74.0368 175.808C80.5256 175.808 88.3681 174.669 97.0385 171.146L95.4979 170.285C93.9953 169.442 92.706 168.284 91.7242 166.896Z" fill="white"/>
<path d="M207.247 156.41C207.223 156.396 207.2 156.383 207.176 156.372L165.898 133.232V139.977L204.117 161.402C204.43 161.59 204.757 161.822 204.356 162.62C203.599 164.128 198.682 167.601 190.241 169.181C184.113 170.327 174.866 170.715 163.848 166.894C162.873 168.277 161.593 169.433 160.1 170.279L158.539 171.151C167.207 174.671 175.046 175.808 181.534 175.808C184.84 175.813 188.139 175.512 191.385 174.91C200.302 173.241 207.694 169.327 209.781 165.168C211.454 161.829 210.436 158.311 207.247 156.41Z" fill="white"/>
<path d="M162.42 114.706L133.39 96.9751C131.692 95.9336 129.764 95.3849 127.8 95.3845C125.837 95.3841 123.909 95.9318 122.21 96.9726L93.1723 114.708C91.476 115.747 90.0667 117.238 89.0848 119.033C88.1033 120.829 87.5831 122.865 87.5767 124.939V160.425C87.5816 162.503 88.1007 164.543 89.083 166.342C90.0652 168.141 91.4756 169.637 93.1742 170.679L122.197 188.405C123.896 189.449 125.825 189.999 127.79 190C129.754 190.001 131.684 189.453 133.384 188.412L162.431 170.672C164.122 169.625 165.525 168.129 166.502 166.332C167.478 164.535 167.995 162.499 168 160.426V124.94C167.993 122.867 167.474 120.833 166.496 119.038C165.517 117.243 164.112 115.749 162.42 114.706ZM96.0713 120.014L105.464 114.277H150.131L159.512 120.007C160.328 120.51 161.007 121.229 161.479 122.094C161.952 122.96 162.203 123.94 162.207 124.94V132.72H93.3687V124.941C93.3732 123.941 93.6248 122.96 94.0992 122.096C94.5733 121.231 95.253 120.514 96.0713 120.014ZM159.526 165.372L150.229 171.05H105.368L96.0743 165.374C95.2538 164.871 94.5725 164.15 94.0977 163.282C93.623 162.413 93.3717 161.429 93.3687 160.426V152.609H162.209V160.426C162.207 161.426 161.958 162.408 161.487 163.276C161.017 164.143 160.341 164.865 159.526 165.372Z" fill="white"/>
</svg>

<svg xmlns="http://www.w3.org/2000/svg" width="256" height="256" fill="none" xmlns:v="https://vecta.io/nano"><rect width="256" height="256" rx="12" fill="#2c3437"/><g fill="#fff"><path d="M122.278 90.654a3.15 3.15 0 0 1-3.147-3.146 14.23 14.23 0 0 0-4.168-10.047c-2.665-2.665-6.279-4.164-10.048-4.169a3.15 3.15 0 0 1-2.225-.922c-.59-.59-.921-1.39-.921-2.225s.331-1.635.921-2.225a3.15 3.15 0 0 1 2.225-.921c5.437.007 10.649 2.169 14.494 6.013a20.53 20.53 0 0 1 6.014 14.492c0 .834-.33 1.635-.92 2.225a3.15 3.15 0 0 1-2.225.923zm11.023 0c-.835 0-1.635-.332-2.225-.922a3.15 3.15 0 0 1-.922-2.225c.007-5.437 2.17-10.65 6.015-14.494A20.53 20.53 0 0 1 150.662 67c.835 0 1.635.332 2.225.922s.921 1.39.921 2.225-.331 1.635-.921 2.225-1.39.921-2.225.921a14.23 14.23 0 0 0-10.047 4.169c-2.665 2.665-4.163 6.279-4.168 10.048a3.14 3.14 0 0 1-.922 2.223 3.15 3.15 0 0 1-2.224.921zm-41.577 76.242c-11.017 3.823-20.263 3.435-26.39 2.287-8.439-1.579-13.356-5.053-14.112-6.561-.4-.8-.074-1.029.236-1.218l38.211-21.426v-6.746L48.4 156.373l-.07.039c-3.189 1.901-4.206 5.419-2.534 8.755 2.087 4.159 9.477 8.074 18.391 9.743 3.246.602 6.544.903 9.849.898 6.489 0 14.331-1.139 23.002-4.662l-1.541-.861a11.52 11.52 0 0 1-3.774-3.389zm115.523-10.486l-.071-.038-41.278-23.14v6.745l38.219 21.425c.313.188.64.42.239 1.218-.757 1.508-5.674 4.981-14.115 6.561-6.128 1.146-15.375 1.534-26.393-2.287a11.54 11.54 0 0 1-3.748 3.385l-1.561.872c8.668 3.52 16.507 4.657 22.995 4.657a53.59 53.59 0 0 0 9.851-.898c8.917-1.669 16.309-5.583 18.396-9.742 1.673-3.339.655-6.857-2.534-8.758z"/><path d="M162.42 114.706l-29.03-17.731c-1.698-1.041-3.626-1.59-5.59-1.591s-3.891.547-5.59 1.588l-29.038 17.735c-1.696 1.039-3.106 2.53-4.088 4.325a12.41 12.41 0 0 0-1.508 5.906v35.486a12.42 12.42 0 0 0 1.506 5.917c.982 1.799 2.393 3.295 4.091 4.337l29.023 17.726A10.68 10.68 0 0 0 127.79 190c1.964.001 3.894-.547 5.594-1.588l29.047-17.74c1.691-1.047 3.094-2.543 4.071-4.34s1.493-3.833 1.498-5.906V124.94c-.007-2.073-.526-4.107-1.504-5.902s-2.384-3.289-4.076-4.332zm-66.349 5.308l9.393-5.737h44.667l9.381 5.73a5.59 5.59 0 0 1 1.967 2.087 5.99 5.99 0 0 1 .728 2.846v7.78H93.369v-7.779c.004-1 .256-1.981.73-2.845s1.154-1.582 1.972-2.082zm63.455 45.358l-9.297 5.678h-44.861l-9.294-5.676c-.82-.503-1.502-1.224-1.977-2.092a6 6 0 0 1-.729-2.856v-7.817h68.84v7.817c-.002 1-.251 1.982-.722 2.85a5.61 5.61 0 0 1-1.961 2.096z"/></g></svg>
